X: 195
T:Danny Boy
M:4/4
R:reel
L:1/4
Z:Alf Warnock alf0@rogers.com
K:G
FG A|"G"B3A|Be dB|"C"AG E2 -|EG Bc|"G/B"d3e|"Em"dB GB|"A7"A4 -|"D7"AF GA|
"G"B3A|"G7"Be dB|"C"AG E2 -|EF GA|"G"B3c|"D7"BA GA|"G"G4 -|Gd ef|
"G"g3f|"C"fe dB|"G"dB G2 -|Gd ef|"Em"g3f|"Bm"fe dB|"Am"A4 -|"D7"Ad dd|
"G"b3a|"C"ag eg|"G"dB "B7"G2 -|"Em"GF "Cm"GA|"G"Be dB|"C"AG "D7"EF|"G"G4 -|G4|]

